static/roadshow/polygon.svg

<svg width="400" height="400" viewBox="0 0 400 400" fill="none" xmlns="http://www.w3.org/2000/svg">
<path d="M31.0997 156.3C31.0997 141.5 31.0997 126.7 31.0997 111.8C31.0997 105.4 34.6997 100.9 39.6997 97.7001C46.8997 93.1001 54.3997 88.9001 61.8997 84.7001C69.8997 80.2001 77.8997 75.5001 85.8997 70.9001C92.8997 66.9001 99.7997 63.0001 106.7 58.9001C111.2 56.3001 115.8 53.8001 120.9 52.6001C124.8 51.7001 128.7 52.6001 132 54.4001C142.4 60.1001 152.7 66.2001 163 72.2001C170 76.3001 176.9 80.4001 183.9 84.3001C190.4 88.0001 196.6 92.2001 203.2 95.8001C206.9 97.8001 210 100.2 212.2 103.7C213.5 105.9 214.7 108.1 214.7 110.9C214.6 120.9 214.6 130.8 214.8 140.8C214.8 143.2 213.8 144.3 212 145.3C205.2 149 198.7 152.9 192.1 156.9C189.6 158.4 186.8 159.6 184.4 161.4C183.7 161.9 183.3 161.6 183.2 160.9C183.1 160.2 183.1 159.6 183.1 158.9C183.1 151.7 182.9 144.5 183.1 137.3C183.3 130.6 181.6 124.6 177.1 119.6C174.4 116.5 170.6 114.7 167.1 112.7C162.8 110.3 158.6 107.6 154.2 105.3C149.3 102.7 144.7 99.7001 139.8 97.2001C136.7 95.6001 133.7 93.6001 130.5 92.2001C128.7 91.4001 127 91.5001 125.2 91.2001C118.7 90.3001 113.3 93.0001 107.9 96.2001C101.3 100.1 94.5997 103.9 87.9997 107.7C82.5997 110.8 76.9997 113.8 71.6997 117.1C68.8997 118.9 66.8997 121.6 65.4997 124.7C63.2997 129.3 62.9997 134 62.9997 138.9C63.0997 151.9 62.8997 164.9 63.0997 177.8C63.1997 186.2 67.3997 192.6 74.2997 196.9C81.4997 201.5 88.9997 205.5 96.3997 209.7C102.8 213.4 108.9 217.4 115.6 220.4C119.6 222.2 123.9 223.3 128.8 221.6C135.1 219.5 140.2 215.6 145.7 212.5C153 208.5 160.1 204.2 167.3 199.9C173.8 196.1 180.2 192.2 186.7 188.4C193.4 184.6 200.2 181 206.8 177.2C213.2 173.6 219.5 169.8 225.9 166.1C231.6 162.8 237.2 159.3 243 156.1C249.3 152.6 255.4 148.6 261.7 145C264.7 143.2 267.9 141.8 271.3 140.7C275.7 139.2 279.5 140.5 283.4 141.4C286.4 142.1 289 144.4 291.8 146C299.6 150.5 307.6 154.7 315.2 159.4C325.1 165.5 335.4 170.9 345.3 177C350.3 180 355.5 182.8 360.4 185.8C366.1 189.3 368.8 194.6 368.9 201.2C369 229.8 369 258.5 368.9 287.1C368.9 295.5 364 301 357 304.9C350.4 308.6 343.8 312.4 337.1 316.1C331.3 319.4 325.5 322.7 319.7 326C315.7 328.3 311.8 330.7 307.9 333C302.4 336.2 296.9 339.2 291.4 342.4C288.7 344 285.9 345.3 283 346.6C282.3 346.9 281.6 347 280.8 347C279.5 347 278.1 346.9 276.8 347.1C271.5 347.7 267.1 345.7 262.7 343C257.5 339.9 252.2 336.9 246.9 333.8C240.2 329.9 233.4 326.1 226.6 322.3C219.1 318 211.5 313.8 204 309.4C199.7 306.8 195 304.8 191.1 301.6C188.2 299.2 186 296.4 184.7 292.6C183.5 289.4 183.6 286.2 183.5 283C183.5 276.1 183.8 269.1 183.4 262.2C183.2 258.3 184.5 256.1 187.8 254.3C196.5 249.4 205.1 244.3 213.7 239.2C215.5 238.2 216.2 238.6 216.2 240.8C216.2 249.4 216.4 258.1 216.1 266.7C215.9 272.4 218.4 276.7 221.9 280.7C225.1 284.4 229.7 286.2 233.8 288.7C238.7 291.6 243.6 294.5 248.5 297.3C254.8 300.9 261 304.7 267.5 307.8C270.8 309.4 274.7 310.6 278.6 309.7C281.5 309 284.4 307.9 287.1 306.4C291.9 303.8 296.4 300.8 301.1 298C305.1 295.6 309.1 293 313.3 290.8C317.3 288.7 321.1 286.3 325 284C329.5 281.3 332.7 277.5 334.6 272.4C335.7 269.5 335.8 266.7 335.8 263.8C335.8 250 335.8 236.2 335.8 222.4C335.8 213.5 331.7 206.9 324.1 202.4C316.8 198.1 309.4 193.9 302 189.7C296.5 186.5 291 183.2 285.4 180.2C280.7 177.6 275.3 177.4 270.3 178.5C266.8 179.2 263.7 181.7 260.4 183.4C255.4 186 250.8 189.2 245.8 191.8C242.1 193.7 238.5 196 234.9 198.1C229 201.5 223.1 204.8 217.3 208.3C210.8 212.2 204.3 216.1 197.7 220C192.4 223.1 186.9 226.1 181.6 229.2C173.9 233.7 166.3 238.2 158.6 242.7C152.1 246.4 145.3 249.8 139 253.8C135.2 256.3 131.1 257.9 126.9 259.3C124.6 260 122 259.9 119.5 259.1C108.5 255.5 99.2997 248.3 89.0997 243C81.8997 239.3 74.9997 235 67.9997 231C58.3997 225.5 48.6997 220.2 39.3997 214.3C34.4997 211.2 30.9997 206.5 31.0997 200.1C31.1997 185.8 31.0997 171 31.0997 156.3Z" fill="white"/>
</svg>

<?xml version="1.0" encoding="utf-8"?>
<!-- Generator: Adobe Illustrator 25.2.1, SVG Export Plug-In . SVG Version: 6.00 Build 0)  -->
<svg version="1.1" id="레이어_1" xmlns="http://www.w3.org/2000/svg" xmlns:xlink="http://www.w3.org/1999/xlink" x="0px"
	 y="0px" viewBox="0 0 400 400" style="enable-background:new 0 0 400 400;" xml:space="preserve">
<path d="M31.1,156.3c0-14.8,0-29.6,0-44.5c0-6.4,3.6-10.9,8.6-14.1c7.2-4.6,14.7-8.8,22.2-13c8-4.5,16-9.2,24-13.8
	c7-4,13.9-7.9,20.8-12c4.5-2.6,9.1-5.1,14.2-6.3c3.9-0.9,7.8,0,11.1,1.8c10.4,5.7,20.7,11.8,31,17.8c7,4.1,13.9,8.2,20.9,12.1
	c6.5,3.7,12.7,7.9,19.3,11.5c3.7,2,6.8,4.4,9,7.9c1.3,2.2,2.5,4.4,2.5,7.2c-0.1,10-0.1,19.9,0.1,29.9c0,2.4-1,3.5-2.8,4.5
	c-6.8,3.7-13.3,7.6-19.9,11.6c-2.5,1.5-5.3,2.7-7.7,4.5c-0.7,0.5-1.1,0.2-1.2-0.5c-0.1-0.7-0.1-1.3-0.1-2c0-7.2-0.2-14.4,0-21.6
	c0.2-6.7-1.5-12.7-6-17.7c-2.7-3.1-6.5-4.9-10-6.9c-4.3-2.4-8.5-5.1-12.9-7.4c-4.9-2.6-9.5-5.6-14.4-8.1c-3.1-1.6-6.1-3.6-9.3-5
	c-1.8-0.8-3.5-0.7-5.3-1c-6.5-0.9-11.9,1.8-17.3,5c-6.6,3.9-13.3,7.7-19.9,11.5c-5.4,3.1-11,6.1-16.3,9.4c-2.8,1.8-4.8,4.5-6.2,7.6
	c-2.2,4.6-2.5,9.3-2.5,14.2c0.1,13-0.1,26,0.1,38.9c0.1,8.4,4.3,14.8,11.2,19.1c7.2,4.6,14.7,8.6,22.1,12.8
	c6.4,3.7,12.5,7.7,19.2,10.7c4,1.8,8.3,2.9,13.2,1.2c6.3-2.1,11.4-6,16.9-9.1c7.3-4,14.4-8.3,21.6-12.6c6.5-3.8,12.9-7.7,19.4-11.5
	c6.7-3.8,13.5-7.4,20.1-11.2c6.4-3.6,12.7-7.4,19.1-11.1c5.7-3.3,11.3-6.8,17.1-10c6.3-3.5,12.4-7.5,18.7-11.1
	c3-1.8,6.2-3.2,9.6-4.3c4.4-1.5,8.2-0.2,12.1,0.7c3,0.7,5.6,3,8.4,4.6c7.8,4.5,15.8,8.7,23.4,13.4c9.9,6.1,20.2,11.5,30.1,17.6
	c5,3,10.2,5.8,15.1,8.8c5.7,3.5,8.4,8.8,8.5,15.4c0.1,28.6,0.1,57.3,0,85.9c0,8.4-4.9,13.9-11.9,17.8c-6.6,3.7-13.2,7.5-19.9,11.2
	c-5.8,3.3-11.6,6.6-17.4,9.9c-4,2.3-7.9,4.7-11.8,7c-5.5,3.2-11,6.2-16.5,9.4c-2.7,1.6-5.5,2.9-8.4,4.2c-0.7,0.3-1.4,0.4-2.2,0.4
	c-1.3,0-2.7-0.1-4,0.1c-5.3,0.6-9.7-1.4-14.1-4.1c-5.2-3.1-10.5-6.1-15.8-9.2c-6.7-3.9-13.5-7.7-20.3-11.5
	c-7.5-4.3-15.1-8.5-22.6-12.9c-4.3-2.6-9-4.6-12.9-7.8c-2.9-2.4-5.1-5.2-6.4-9c-1.2-3.2-1.1-6.4-1.2-9.6c0-6.9,0.3-13.9-0.1-20.8
	c-0.2-3.9,1.1-6.1,4.4-7.9c8.7-4.9,17.3-10,25.9-15.1c1.8-1,2.5-0.6,2.5,1.6c0,8.6,0.2,17.3-0.1,25.9c-0.2,5.7,2.3,10,5.8,14
	c3.2,3.7,7.8,5.5,11.9,8c4.9,2.9,9.8,5.8,14.7,8.6c6.3,3.6,12.5,7.4,19,10.5c3.3,1.6,7.2,2.8,11.1,1.9c2.9-0.7,5.8-1.8,8.5-3.3
	c4.8-2.6,9.3-5.6,14-8.4c4-2.4,8-5,12.2-7.2c4-2.1,7.8-4.5,11.7-6.8c4.5-2.7,7.7-6.5,9.6-11.6c1.1-2.9,1.2-5.7,1.2-8.6
	c0-13.8,0-27.6,0-41.4c0-8.9-4.1-15.5-11.7-20c-7.3-4.3-14.7-8.5-22.1-12.7c-5.5-3.2-11-6.5-16.6-9.5c-4.7-2.6-10.1-2.8-15.1-1.7
	c-3.5,0.7-6.6,3.2-9.9,4.9c-5,2.6-9.6,5.8-14.6,8.4c-3.7,1.9-7.3,4.2-10.9,6.3c-5.9,3.4-11.8,6.7-17.6,10.2
	c-6.5,3.9-13,7.8-19.6,11.7c-5.3,3.1-10.8,6.1-16.1,9.2c-7.7,4.5-15.3,9-23,13.5c-6.5,3.7-13.3,7.1-19.6,11.1
	c-3.8,2.5-7.9,4.1-12.1,5.5c-2.3,0.7-4.9,0.6-7.4-0.2c-11-3.6-20.2-10.8-30.4-16.1c-7.2-3.7-14.1-8-21.1-12
	c-9.6-5.5-19.3-10.8-28.6-16.7c-4.9-3.1-8.4-7.8-8.3-14.2C31.2,185.8,31.1,171,31.1,156.3z"/>
</svg>
